X: 8786
T: Cuckoo's Nest, The
R: hornpipe
M: 4/4
K: Gmajor
dc|B2BA GBdg|fdcB cedc|B2BG D/E/FGA|BGcB AAdc|
B2BA GBdg|fdcB cedc|B2GD E/F/GAc|B2G2 G2:|(or something like that)
dc|B2BA GBdg|fdcB cedc|d2B2 dBGA|BAAG A2dc|
B2BA GB/c/dg|fdcB cedc|ddBD DBAc|B2G2 G2:|

